!!!COM: labrinth-feat-emeli-sande
!!!OTL: beneath-your-beautiful
!!!RNB: hooktheoryid: EzngRKVexJj
**kern	**text
*clefG2	*
*k[f#c#]	*
*M4/4	*
=1	=1
8r	Bm
8f#	.
8f#	.
8f#	.
8.f#	.
8.b	.
[8a	.
=2	=2
16a]	D
16r	.
8a	.
8a	.
8a	.
8a	.
8g	.
8f#	.
[8e	.
=3	=3
8e]	G
[2f#	.
16f#]	.
4r	.
16r	.
=4	=4
1r	Gmaj7
=5	=5
8r	Bm
8f#	.
8f#	.
8f#	.
8.f#	.
8.b	.
[8a	.
=6	=6
4a	D
16a]	.
16r	.
8a	.
8a	.
8g	.
8f#	.
[8e	.
=7	=7
8e]	G
[2d	.
16d]	.
4r	.
16e	.
=8	=8
8e	A
8f#	.
8g	.
4cc#	.
8a	.
8b	.
8ff#	.
=9	=9
1r	.
*-	*-